**kern	**kern	**kern	**kern	**kern
*MM60	*MM60	*MM60	*MM60	*MM60
*k[]	*k[]	*k[]	*k[]	*k[]
*M4/4	*M4/4	*M4/4	*M4/4	*M4/4
*tb32	*tb32	*tb32	*tb32	*tb32
=53	=53	=53	=53	=53
8cc	8e-	2r	4AA	4AA
8a	8c	.	.	.
16a	16c	.	4r	4r
16g	16B	.	.	.
16f#	16A	.	.	.
16e	16G	.	.	.
8f#	8A	8r	4r	8r
8dd	8r	8f#	.	16D
.	.	.	.	16F#
16dd	4r	8g	8d	16E
16cc	.	.	.	16G
16b-	.	8a	8d	16F#
16a	.	.	.	16A
=54	=54	=54	=54	=54
8b-	1r	4g	8d	8G
8cc	.	.	8e-	8C
8b-	.	8g	8d	8D
8a	.	8f#	8d	8DD
8g	.	8d	8B-	4GG
8gg	.	16b-	8r	.
.	.	16dd	.	.
8ff#	.	16a	4r	4r
.	.	16dd	.	.
8gg	.	16b-	.	.
.	.	16dd	.	.
=55	=55	=55	=55	=55
16dd	1r	8f#	1r	8r
16cc	.	.	.	.
16b-	.	8g	.	8D
16cc	.	.	.	.
16a	.	8f#	.	8D
16dd	.	.	.	.
16b-	.	8g	.	8D
16dd	.	.	.	.
8a	.	8f#	.	8D
16dd	.	8f#	.	8D
16ee	.	.	.	.
16dd	.	8g	.	8E
16cc	.	.	.	.
16b-	.	8a	.	8F#
16a	.	.	.	.
=56	=56	=56	=56	=56
8b-	1r	8d	1r	8G
8cc	.	8e-	.	8C
8b-	.	8d	.	8D
8a	.	8c	.	8DD
8g	.	8B-	.	4GG
16ee	.	16c#	.	.
16ff	.	16d	.	.
8gg	.	8e	.	8r
16cc#	.	16e	.	[8G
16dd	.	16f	.	.
=57	=57	=57	=57	=57
8ee	1r	8g	1r	4G]
16a	.	16c#	.	.
16b	.	16d	.	.
8cc#	.	8e	.	8r
8dd	.	8a	.	8F
4.dd	.	16g	.	4E
.	.	16a	.	.
.	.	16g	.	.
.	.	16f	.	.
.	.	16e	.	4A
.	.	16a	.	.
8cc#	.	16g	.	.
.	.	16a	.	.
=58	=58	=58	=58	=58
8dd	1r	8f	1r	4D
16ff	.	8dd	.	.
16aa	.	.	.	.
16ee	.	8cc#	.	4r
16aa	.	.	.	.
16ff	.	8dd	.	.
16aa	.	.	.	.
8cc#	.	16a	.	8r
.	.	16g	.	.
8dd	.	16f	.	8D
.	.	16a	.	.
8ee	.	16e	.	8C#
.	.	16a	.	.
8ff	.	16d	.	8D
.	.	16a	.	.
=59	=59	=59	=59	=59
8ee	1r	16c#	1r	4AA
.	.	16e	.	.
8dd	.	16B	.	.
.	.	16e	.	.
16cc#	.	[4A	.	[4G
16a	.	.	.	.
16b	.	.	.	.
16cc#	.	.	.	.
4.dd	.	16A]	.	8G]
.	.	16A	.	.
.	.	16B	.	16F
.	.	16c	.	16E
.	.	[4d	.	8F
8aa	.	.	.	8D
=60	=60	=60	=60	=60
16gg	1r	16d]	1r	4E
16aa	.	16B	.	.
16gg	.	16c#	.	.
16ff	.	16d	.	.
16ee	.	16c#	.	4A
16gg	.	16e	.	.
16ff	.	16d	.	.
16ee	.	16c#	.	.
16ff	.	16d	.	4D
16dd	.	16a	.	.
16gg	.	16f	.	.
16aa	.	16d	.	.
16bb-	.	16G	.	8r
16aa	.	16f	.	.
16gg	.	16e	.	8G
16ff	.	16d	.	.
=61	=61	=61	=61	=61
16ee	1r	16c	1r	4C
16cc	.	16g	.	.
16ee	.	16e	.	.
16gg	.	16c	.	.
16aa	.	16F	.	8r
16gg	.	16e	.	.
16ff	.	16d	.	8F
16ee	.	16c	.	.
16dd	.	16B-	.	4BB-
16b-	.	16f	.	.
16dd	.	16d	.	.
16ff	.	16B-	.	.
16gg	.	16E	.	8r
16ff	.	16d	.	.
16ee	.	16c#	.	8E
16dd	.	16B	.	.
=62	=62	=62	=62	=62
16cc#	4r	16e	4A	8AA
16ee	.	16g	.	.
16dd	.	16f	.	8GG
16cc#	.	16e	.	.
16aa	8r	16A	4r	8FF
16gg	.	16e	.	.
16ff	8b	16d	.	8GG#
16ee	.	16c#	.	.
4ff	4.a	4d	2r	4AA
4ee	.	4c#	.	4AA
.	8g	.	.	.
=63	=63	=63	=63	=63
1dd	1f	1A	1D	1DD
*-	*-	*-	*-	*-
